packages/react-pangolicons/svgs/server.svg

<svg xmlns="http://www.w3.org/2000/svg" width="24" height="24" viewBox="0 0 24 24" stroke="currentColor" fill="none" stroke-linecap="round" stroke-width="1.5" stroke-linejoin="round" stroke-align="center" ><path  d="M21,20.88H3c-.55,0-1-.45-1-1v-4.67c0-.55,.45-1,1-1H21c.55,0,1,.45,1,1v4.67c0,.55-.45,1-1,1Zm-14.34-3.67c-.18,0-.33,.15-.33,.33s.15,.33,.33,.33,.33-.15,.33-.33-.15-.33-.33-.33Zm14.34-7.42H3c-.55,0-1-.45-1-1V4.12c0-.55,.45-1,1-1H21c.55,0,1,.45,1,1v4.67c0,.55-.45,1-1,1Zm-3.83-3.67c-.18,0-.33,.15-.33,.33s.15,.33,.33,.33,.33-.15,.33-.33-.15-.33-.33-.33Z"/></svg>

<svg xmlns="http://www.w3.org/2000/svg" width="24" height="24" viewBox="0 0 24 24" stroke="currentColor" fill="none" stroke-linecap="round" stroke-width="1.5" stroke-linejoin="round" stroke-align="center" ><path  d="M21,20.88H3a1,1,0,0,1-1-1V15.21a1,1,0,0,1,1-1H21a1,1,0,0,1,1,1v4.67A1,1,0,0,1,21,20.88ZM6.67,17.21a.34.34,0,1,0,.33.33A.34.34,0,0,0,6.67,17.21Z"/><path  d="M21,9.79H3a1,1,0,0,1-1-1V4.12a1,1,0,0,1,1-1H21a1,1,0,0,1,1,1V8.79A1,1,0,0,1,21,9.79ZM17.17,6.12a.34.34,0,1,0,.33.34A.34.34,0,0,0,17.17,6.12Z"/></svg>
